assets/img/podcast/listen/rss.svg

<svg xmlns="http://www.w3.org/2000/svg" width="100" height="30" fill="none" viewBox="0 0 100 30"><rect width="100" height="30" fill="#fff"/><rect width="100" height="30" fill="url(#paint0_linear)"/><path fill="#fff" d="M5.00026 22.3368C5.00026 20.8543 5.00026 19.6601 7.66323 19.6601C10.3262 19.6601 10.4086 20.8543 10.4086 22.3368C10.4086 23.8192 10.4086 24.9997 7.66323 24.9997C4.9179 24.9997 5.00026 23.8055 5.00026 22.3368ZM7.00436 5C5.01399 5 5.00026 5.89223 5.00026 6.99036C5.00026 8.0885 5.00026 8.99446 7.00436 8.99446C15.3776 8.99446 21.0055 14.6224 21.0055 22.9956C21.0055 24.1075 21.0055 24.9997 23.0096 24.9997C25.0137 24.9997 25 24.1075 25 22.9956C25 12.3987 17.6013 5 7.00436 5ZM7.00436 11.6574C5.01399 11.6574 5.00026 12.5634 5.00026 13.6615C5.00026 14.7597 5.00026 15.6656 7.00436 15.6656C9.00845 15.6656 14.3344 16.3794 14.3344 22.9956C14.3344 24.1075 14.3344 24.9997 16.3385 24.9997C18.3426 24.9997 18.3426 24.1075 18.3426 22.9956C18.3426 14.6361 12.2342 11.6574 7.00436 11.6574Z"/><rect width="66" height="24" x="31" y="3" fill="#fff"/><path fill="#000" d="M56.1191 12.999H57.5449C58.3457 12.999 58.834 13.4482 58.834 14.1807C58.834 14.9277 58.375 15.3574 57.5742 15.3574H56.1191V12.999ZM56.1191 16.3584H57.5156L58.8975 19H60.3379L58.7998 16.1631C59.6396 15.8604 60.1279 15.084 60.1279 14.1562C60.1279 12.8037 59.2002 11.9541 57.7207 11.9541H54.8594V19H56.1191V16.3584ZM61.334 17.0859C61.3975 18.3652 62.4668 19.1758 64.083 19.1758C65.792 19.1758 66.8516 18.3213 66.8516 16.9492C66.8516 15.875 66.251 15.2793 64.8203 14.957L64.0098 14.7715C63.1357 14.5713 62.7793 14.293 62.7793 13.8193C62.7793 13.2188 63.3164 12.8281 64.127 12.8281C64.8984 12.8281 65.4453 13.2188 65.5332 13.8389H66.7393C66.6807 12.6279 65.6113 11.7783 64.1318 11.7783C62.5547 11.7783 61.5098 12.6279 61.5098 13.9072C61.5098 14.957 62.1104 15.5918 63.3896 15.8799L64.3027 16.0898C65.2061 16.2998 65.5918 16.5977 65.5918 17.1055C65.5918 17.6963 64.9912 18.1211 64.1611 18.1211C63.2676 18.1211 62.6426 17.7158 62.5645 17.0859H61.334ZM67.9453 17.0859C68.0088 18.3652 69.0781 19.1758 70.6943 19.1758C72.4033 19.1758 73.4629 18.3213 73.4629 16.9492C73.4629 15.875 72.8623 15.2793 71.4316 14.957L70.6211 14.7715C69.7471 14.5713 69.3906 14.293 69.3906 13.8193C69.3906 13.2188 69.9277 12.8281 70.7383 12.8281C71.5098 12.8281 72.0566 13.2188 72.1445 13.8389H73.3506C73.292 12.6279 72.2227 11.7783 70.7432 11.7783C69.166 11.7783 68.1211 12.6279 68.1211 13.9072C68.1211 14.957 68.7217 15.5918 70.001 15.8799L70.9141 16.0898C71.8174 16.2998 72.2031 16.5977 72.2031 17.1055C72.2031 17.6963 71.6025 18.1211 70.7725 18.1211C69.8789 18.1211 69.2539 17.7158 69.1758 17.0859H67.9453Z"/><defs><linearGradient id="paint0_linear" x1="50" x2="50" y1="0" y2="30" gradientUnits="userSpaceOnUse"><stop stop-color="#FA9C39"/><stop offset="1" stop-color="#E26C2D"/></linearGradient></defs></svg>

<svg xmlns="http://www.w3.org/2000/svg" width="100" height="30" fill="none"><path fill="#fff" d="M0 0H100V30H0z"/><path fill="url(#paint0_linear)" d="M0 0H100V30H0z"/><path fill="#fff" d="M5 22.337c0-1.483 0-2.677 2.663-2.677s2.746 1.194 2.746 2.677c0 1.482 0 2.663-2.746 2.663C4.918 25 5 23.805 5 22.337zM7.004 5C5.014 5 5 5.892 5 6.99c0 1.098 0 2.004 2.004 2.004 8.374 0 14.002 5.628 14.002 14.002 0 1.112 0 2.004 2.004 2.004S25 24.108 25 22.996C25 12.399 17.601 5 7.004 5zm0 6.657c-1.99 0-2.004.906-2.004 2.005 0 1.098 0 2.004 2.004 2.004s7.33.713 7.33 7.33c0 1.112 0 2.004 2.005 2.004 2.004 0 2.004-.892 2.004-2.004 0-8.36-6.109-11.339-11.339-11.339z"/><path fill="#fff" d="M31 3H97V27H31z"/><path fill="#000" d="M56.12 12.999h1.425c.8 0 1.289.45 1.289 1.182 0 .747-.459 1.176-1.26 1.176H56.12V13zm0 3.36h1.396L58.898 19h1.44L58.8 16.163c.84-.303 1.328-1.079 1.328-2.007 0-1.352-.928-2.202-2.407-2.202h-2.862V19h1.26v-2.642zm5.214.727c.063 1.28 1.133 2.09 2.749 2.09 1.709 0 2.769-.855 2.769-2.227 0-1.074-.601-1.67-2.032-1.992l-.81-.186c-.874-.2-1.23-.478-1.23-.952 0-.6.536-.99 1.347-.99.771 0 1.318.39 1.406 1.01h1.206c-.058-1.211-1.128-2.06-2.607-2.06-1.577 0-2.622.849-2.622 2.128 0 1.05.6 1.685 1.88 1.973l.913.21c.903.21 1.289.508 1.289 1.015 0 .591-.6 1.016-1.43 1.016-.894 0-1.52-.405-1.598-1.035h-1.23zm6.611 0c.064 1.28 1.133 2.09 2.75 2.09 1.708 0 2.768-.855 2.768-2.227 0-1.074-.6-1.67-2.031-1.992l-.81-.186c-.875-.2-1.231-.478-1.231-.952 0-.6.537-.99 1.347-.99.772 0 1.319.39 1.406 1.01h1.207c-.059-1.211-1.128-2.06-2.608-2.06-1.577 0-2.622.849-2.622 2.128 0 1.05.6 1.685 1.88 1.973l.913.21c.903.21 1.29.508 1.29 1.015 0 .591-.601 1.016-1.431 1.016-.894 0-1.52-.405-1.597-1.035h-1.23z"/><defs><linearGradient id="paint0_linear" x1="50" x2="50" y2="30" gradientUnits="userSpaceOnUse"><stop stop-color="#FA9C39"/><stop offset="1" stop-color="#E26C2D"/></linearGradient></defs></svg>
